X: 177
T: SLIDE: Dan Jeremiah's
C: C: Trad.; S: Emma O'Leary
C: Set Leaders: Anton, Sophie
Z: Anton Zille ed.; Aidan Crossey at The Session
N: https://thesession.org/members/26966/sets/94458
R: Slide
M: 12/8
L: 1/8
Q: 3/8=130
K: Dmaj
|:F2A dBA B2A F2A|B2E EDE F2E D2E|
F2A dBA B2A F2A|1 ~B3 cBc d3 d2A:|2 ~B3 cBc d3 d2B||
|:A2d dcd B2A F2A|B3 BAB c2A F2G|
A2d dcd B2A F2A|1 B2e e2c d3 dcB:|2 Bcd edc d3 d2A||

